X:18323
T:Vite, vite, vite (Arrg.)
C:Tradicional
S:Msica Tradicional Asturiana, (C) Tello & Tito. Asturies, 2001.
S:http://pagina.de/MusTradAst <telloytito@asturies.org>
A:Asturies
G:Arrg.
Z:Asturias, canciones
M:3/8
L:1/8
Q:3/8=100
K:D
F|:"D"A2 B|"A"AGA|"D"F D2-|"D"D z A|
"G"d2 e|"A"dcA|"D"B A2-|"D"A z F :|
|"Em"GFE|"D"A2 F|"Em"GFE|"D"A2 A|
|:"D"AFD|"Em"EFG|"Em"GEC|
[1 "D"D2 A:|[2 "D"D2 z||
